!!!!SEGMENT: pl-sa--591-a-ix-71--001_anonim--pastuszkowie.krn
!!!cenid: 18xx:658
!!!COM: Anonim
!!!COM-rismid: pe30004985
!!!CDT:
!!!CNT:
!!!OTL: Pastuszkowie
!!!PDT:
!!!AGN: Secular
!!!SMS-siglum: PL-SA
!!!SMS-shelfmark: 591/A IX 71
!!!SMS-shelfwork: 001 W
!!!SMS-variant:
!!!SMS-altvar:
!!!NIFC-rismid: 1001113064
!!!URL-scan: http://bc.bdsandomierz.pl/dlibra/publication/1400/edition/1368/content
!!!ONB-nifc: Str. 1, s. 1-2
!!!key:
**kern	**kern
*part1	*part1
*staff2	*staff1
*Iempty	*Iempty
*I"	*I"
*I'keyb	*I'keyb
*clefF4	*clefG2
*k[f#]	*k[f#]
*G:	*G:
*M2/4	*M2/4
=1	=1
!LO:TX:a:t=P:problem:brak klucza i metrum	!LO:TX:a:t=P:problem:brak klucza i metrum
!	!LO:TX:i:a:t=Pastuszkowie
8D\L	8d/L
8G\ 8B	8g/
8G\ 8B	8f#/
8G\J 8B	8g/J
=2	=2
8D\L	8f#/L
8F#\ 8A	8e/
8F#\ 8A	8f#/
8F#\J 8A	8d/J
=3	=3
*rep	*
!LO:TX:a:t=P:problem:brak oznaczenia cyfrowego nad powtórzeniem	!
8D\L	8d/L
8F#\ 8A	8a/
8F#\ 8A	8g#X/
8F#\J 8A	8a/J
*Xrep	*
=4	=4
8D\L	8b/L
8G\ 8B	8a/
8G\ 8B	8b/
8G\J 8B	8g/J
=5||	=5||
8D\L	8a/L
8F#\ 8A 8c	8dd/
8F#\ 8A 8c	8cc#X/
8F#\J 8A 8c	8dd/J
=6	=6
8D\L	8dd/L
8G\ 8B	8cc#X/
8G\ 8B	8dd/
8G\J 8B	8b/J
!!LO:LB:g=original
=7	=7
8D\L	8a\L
8F#\ 8A	8b\
8F#\ 8A	8cc\
8F#\J 8A	8cc\J
=8	=8
8D\L	8b\L
8G\ 8B	8a\
8G\ 8B	8b\
8G\J 8B	8g\J
=9	=9
!	!LO:TX:a:t=P:problem:mixed beam
8D\L	8cc\L
8F#\J 8A	8d/
*rep	*
8D\L	8e/
8F#\J 8A	8f#/J
*Xrep	*
=10	=10
4D\ 4G 4B	4g/
==	==
*-	*-
!!!system-decoration: {(s1,s2)}
!!!RDF**kern: > = above
!!!RDF**kern: < = below
!!!EED: Mateusz Mrugas
!!!EST: 2020-12-11
!!!AIN: 1 empty
!!!ENC: Marcin Jachim
!!!END: 2020-06-19
